X: 40416
T: Tom McElvogue's
R: jig
M: 6/8
K: Gmajor
|:Ged BAG|AGE GED|G2 D A2 D|B2 D cBA|Ged BAG|AGE GED|
GAB cBA|BDF G3:|ADF ABc|dGB dfg|afd cBA|BcA GAB|
ADF ABc|dGB dfg|afd cBA|BcA G3|AFD FAc|BGD GBd|
fag gfe|edc B2 c|AFD A,DF|GDB, G,2 B,|CDE FGA|BcA G3||

